X:257
T:le Saut du Chien
O:French
%C:Fr\'ed\eric Paris?
M:4/4
K:Dmix
|:\
"D"A4 "G"B4 | "A7"A2G2 "D"FED2 | "D"A4 "G"B4 | "D"A2d2 "D7"=cBAG |\
"D"A4 "G"B4 | "A7"A2G2 "D"FED2 | "Em"G2E2 "A7"AGFE | "D"D2F2 D4 :|
|:\
"G"G2G2 G2FG | "D7"A2A2 F2D2 | "G"G2G2 G2FG | "D7"A2d2 A4 |\
"G"G2G2 G2FG | "D7"A2A2 F2D2 | "Em"G2E2 "A7"AGFE | "D"D2F2 D4 :|
